X: 32728
T: Pollier's
R: jig
M: 6/8
K: Adorian
|:eAA def|~g3 efg|fed edB|dBG GBd|
eAA fga|~g3 age|dBG Ged|BAG A3:|
|:cGG AGE|DEG ABA|eaa age|ged deg|
age ged|cAB c2A|~B3 Ged|BAG A3:|

